X: 36681
T: She Hasn't The Thing She Thought She Had
R: slide
M: 12/8
K: Dmajor
|:F2 A D2 d BdB A3|F2 A D2 F E3 E3|
F2 A D2 d BdB A3|F2 A E2 F D3 D3:|
|:f2 e d2 A BDB A3|f2 e d2 f e3 e3|
f2 e d2 A BDB A3|F2 A E2 F D3 D3:|

